X:1
T:O Jesu Dulcissime
T:O Jesu mi dulcissime
T:Mariano Garau
C:Mariano Garau
%%score [ 1 2 3 ]
L:1/8
Q:1/2=40
M:2/2
K:F
V:1 treble nm="Soprano" snm="S."
V:2 treble nm="Alto" snm="A."
V:3 bass nm="Baritone" snm="Bar."
V:1
!p! B4 | B4 A4 | A2 d2 A3 G | G8 | G4 F2 E2 | E2 D2 F3 E | E8 | A4 A2 e2 | e2 d2 c3 B |!<(! B6 d2 | %10
w: O|Je- su|mi dul- cis- si-|me,|spes su- spi-|ran- tis a- mi-|mae!|Te quae- runt|pi- ae la- cri-|mae, Te|
 c2!<)! B2!>(! B4 | A6!>)! A2 | A2 G2 B2 G2 | (F4 E4- | E2) D2 !fermata!D4 ||!mf! F4 G2 G2 | %16
w: cla- mor men-|tis, Te|cla- mor men- tis|in- *|* ti- mae.|Ma- ne no-|
 G2 G2 G3 F | F4 _E4 | _E2 D2 ^F2 A2 | A3 G G4 |!<(! ^G4 =B4 | =B4 A2 c2 | c3!<)! =B B4 | d8 | %24
w: bis cum Do- mi-|ne, Et|nos il- lu- stra|lu- mi- ne,|Pul- sa|men- tis ca-|li- gi- ne:|Mun-|
!>(! d2 c2 B2 G2 | B6 A2 | !fermata!A4!>)!!p! B4 | B4 A4 | A2 d2 A3 G | G8 | G4 F2 E2 | %31
w: dum re- ple dul-|ce- di-|ne. O|Je- su|mi dul- cis- si-|me,|spes su- spi-|
 E2 D2 F3 E | E8 | A4 A2 e2 | e2 d2 c3 B |!<(! B6 d2!<)! | c2!>(! B2 B4 | A6!>)! A2 | A2 G2 B2 G2 | %39
w: ran- tis a- ni-|mae!|Te quae- runt|pi- ae la- cri-|mae, Te|cla- mor men-|tis, Te|cla- mor men- tis|
 (F4 E4 | E2) D2 D4 || z2 D2 E2 F2 | G4 G2 E2 | F2 G2 A3 A | A6 A2 | A2 G2 d2 d2 | %46
w: in- *|* ti- mae.|O Je- su,|O Je- su|mi dul- cis- si-|me, O|Je- su mi dul-|
"^rall."!>(! ^c6 d2 | !fermata!d8!>)! |] %48
w: cis- si-|me.|
V:2
!p! D4 | D4 D4 | D2 D2 D3 D | D8 | ^C4 C2 C2 | A,2 A,2 =B,3 B, | ^C8 | D4 E2 E2 | F2 F2 F3 F | %9
w: O|Je- su|mi dul- cis- si-|me,|spes su- spi-|ran- tis a- ni-|mae!|Te quae- runt|pi- ae la- cri-|
!<(! E4 E4 | E2!<)! E2!>(! G4 | F6!>)! E2 | D2 D2 D2 D2 | (D8 | ^C2) A,2 !fermata!A,4 || %15
w: mae, Te|cla- mor men-|tis, Te|cla- mor men- tis|in-|* ti- mae.|
!mf! F4 F2 E2 | D2 C2 C3 C | C4 C4 | C2 C2 C2 C2 | D3 D D4 |!<(! D4 D4 | E4 E2 E2 | F3!<)! F F4 | %23
w: Ma- ne no-|bis cum Do- mi-|ne, Et|nos il- lu- stra|lu- mi- ne,|Pul- sa|men- tis ca-|li- gi- ne:|
 (F4 _A4) |!>(! G2 G2 G2 G2 | G4 ^F4 | !fermata!^F4!>)!!p! D4 | D4 D4 | D2 D2 D3 D | D8 | %30
w: Mun- *|dum re- ple dul-|ce- di-|ne. O|Je- su|mi dul- cis- si-|me,|
 ^C4 C2 C2 | A,2 A,2 =B,3 B, | ^C8 | D4 E2 E2 | F2 F2 F3 F |!<(! E4 E4!<)! | E2!>(! E2 G4 | %37
w: spes su- spi-|ran- tis a- ni-|mae!|Te quae- runt|pi- ae la- cri-|mae, Te|cla- mor men-|
 F6!>)! E2 | D2 D2 D2 D2 | (D8 | ^C2) A,2 A,4 || z2 D2 E2 F2 | D4 ^C2 E2 | F2 G2 F3 F | F6 E2 | %45
w: tis, Te|cla- mor men- tis|in-|* ti- mae.|O Je- su,|O Je- su|mi dul- cis- si-|me, O|
 D2 D2 D2 E2 |"^rall."!>(! F4 E4 | !fermata!F8!>)! |] %48
w: Je- su mi dul-|cis- si-|me.|
V:3
!p! G,4 | ^F,4 F,4 | F,2 F,2 B,3 B, | B,8 | A,4 A,2 G,2 | F,2 F,2 ^G,3 G, | A,8 | F,4 ^C,2 C,2 | %8
w: O|Je- su|mi dul- cis- si-|me,|spes su- spi-|ran- tis a- ni-|mae!|Te quae- runt|
 D,2 D,2 D,3 D, |!<(! C,4 C4 | C2!<)! C2!>(! ^C4 | D6!>)! C2 | B,2 B,2 G,2 B,2 | A,8- | %14
w: pi- ae la- cri-|mae, Te|cla- mor men-|tis, Te|cla- mor men- tis|in-|
 A,2 A,2 !fermata!F,4 ||!mf! D,4 B,2 B,2 | B,2 B,2 A,3 A, | A,4 A,4 | ^F,2 F,2 D,2 C,2 | %19
w: * ti- mae.|Ma- ne no-|bis cum Do- mi-|ne, Et|nos il- lu- stra|
 B,,3 B,, B,,4 |!<(! =B,,4 B,,4 | C,4 C,2 C,2 | D,3!<)! D, D,4 | D,8 |!>(! _E,2 E,2 E,2 E,2 | %25
w: lu- mi- ne,|Pul- sa|men- tis ca-|li- gi- ne:|Mun-|dum re- ple dul-|
 D,4 D,4 | !fermata!D,4!>)!!p! G,4 | ^F,4 F,4 | F,2 F,2 B,3 B, | B,8 | A,4 A,2 G,2 | %31
w: de- di-|ne. O|Je- su|mi dul- cis- si-|me,|spes su- spi-|
 F,2 F,2 ^G,3 G, | A,8 | F,4 ^C,2 C,2 | D,2 D,2 D,3 D, |!<(! C,4 C4!<)! | C2!>(! C2 ^C4 | %37
w: ran- tis a- ni-|mae!|Te quae- runt|pi- ae la- cri-|mae, Te|cla- mor men-|
 D6!>)! C2 | B,2 B,2 G,2 B,2 | A,8- | A,2 A,2 F,4 || z2 D,2 E,2 F,2 | B,4 A,2 E,2 | F,2 G,2 D3 D | %44
w: tis, Te|cla- mor men- tis|in-|* ti- mae.|O Je- su,|O Je- su|mi dul- cis- si-|
 D6 C2 | B,2 B,2 B,2 B,2 |"^rall."!>(! A,4 A,4 | !fermata!D,8!>)! |] %48
w: me, O|Je- su mi dul-|cis- si-|me.|

